X: 22652
T: Lake Banook
R: waltz
M: 3/4
K: Amajor
AB|:c2- ce (3ABc|A2- A2 FE|F2- F2 A2|B2- B2 AB|
c2- ce (3ABc|Az a2- ab|f2- f2 ec|B2- B2 AB|
c2- ce (3ABc|A2- A2 FE|F2- F2 A2|B2- B2 FE|
F2- F2 A2|B2- B2 A2|A2- A2- A2-|1 A2 z2 AB:|2 A2- A2 z2||
|:A2 A2 B2|BA/B/ c2- c2|cA f2 f2|e2 e2 c2|
c2 c2 c2|A2 A2 B2|BA/B/ c2 c2|[M:6/8] c3 ABc|
d2e c2 B/A/|B2 B2 B2|B2 A2 A2|B2 BA/B/ c2|
c2 c2 cA|a2 a2 f2|fe c2 c2|c2 A2|
[M:6/8] afe fec|A2 A2 A(3A/B/c/|[M:6/8] dcB AB2-|B2 A2- A2:|

